packages/ui-icons/src/Basic/32/Tablet_32.svg

<svg xmlns="http://www.w3.org/2000/svg" viewBox="0 0 40 40"><path d="M34 6H6a4 4 0 0 0-4 4v20a4 4 0 0 0 4 4h28a4 4 0 0 0 4-4V10a4 4 0 0 0-4-4Zm2 24a2 2 0 0 1-2 2H6a2 2 0 0 1-2-2V10a2 2 0 0 1 2-2h28a2 2 0 0 1 2 2Zm-4-14h2v8h-2Zm-22 4a2 2 0 1 1-2-2 2 2 0 0 1 2 2Z"/></svg>

<svg id="Ready" xmlns="http://www.w3.org/2000/svg" viewBox="0 0 40 40"><title>Megaicons_work_32_1.8_cp</title><path d="M34,6H6a4,4,0,0,0-4,4V30a4,4,0,0,0,4,4H34a4,4,0,0,0,4-4V10A4,4,0,0,0,34,6Zm2,24a2,2,0,0,1-2,2H6a2,2,0,0,1-2-2V10A2,2,0,0,1,6,8H34a2,2,0,0,1,2,2ZM32,16h2v8H32ZM10,20a2,2,0,1,1-2-2A2,2,0,0,1,10,20Z"/></svg>
